X:72
T:My Darling Asleep
R:Jig
M:6/8
L:1/8
K:D
|:e|"D"fdd "A"cAA|"G"BAG "D"A2G|"D"FAA def|"G"gfg "A"eag|!
"D"fdd "A"cAA|"G"BAG "D"A2G|"D"FAA "G"def|1"A"gec "D"d2:|2"A"gec "D"d2z|!
|:"D"FAA BAG|"D"FAA "G"BAG|"D"FAA def|"G"gfg "A"eag|"D"fdd "A"cAA|"G"BAG "D"A2G|"D"FAA "G"def|1"A"gec

"D"d2A:|2"A"gec "D"d2||

